outputs/icons/editor/underline_sharp.svg

<svg xmlns="http://www.w3.org/2000/svg" width="1200" height="1200" fill="none"><g clip-path="url(#a)"><path fill="#000" d="M600 850c165.5 0 300-134.5 300-300V150H775v400c0 96.5-78.5 175-175 175s-175-78.5-175-175V150H300v400c0 165.5 134.5 300 300 300M250 950v100h700V950z"/></g><defs><clipPath id="a"><path fill="#fff" d="M0 0h1200v1200H0z"/></clipPath></defs></svg>

<svg width="1200" height="1200" viewBox="0 0 1200 1200" fill="none" xmlns="http://www.w3.org/2000/svg"><g clip-path="url(#clip0_125_1475)"><path d="M600 850C765.5 850 900 715.5 900 550V150H775V550C775 646.5 696.5 725 600 725C503.5 725 425 646.5 425 550V150H300V550C300 715.5 434.5 850 600 850ZM250 950V1050H950V950H250Z" fill="black"/></g><defs><clipPath id="clip0_125_1475"><path width="24" fill="white" d="M0 0H1200V1200H0V0z"/></clipPath></defs></svg>
